images/icons/mastercard.svg

<svg width="32" height="21" viewBox="0 0 32 21" fill="none" xmlns="http://www.w3.org/2000/svg">
<path d="M16.1187 5.34098C16.9127 5.95451 17.5546 6.7378 17.9956 7.63158C18.4367 8.52536 18.6655 9.50619 18.6646 10.4998C18.6652 11.4932 18.4363 12.4736 17.9952 13.3671C17.5542 14.2605 16.9125 15.0435 16.1187 15.6568C15.3248 15.0434 14.6831 14.2602 14.242 13.3666C13.8009 12.473 13.5721 11.4924 13.5729 10.4989C13.5721 9.50539 13.8009 8.52475 14.242 7.63115C14.6831 6.73755 15.3248 5.95441 16.1187 5.34098ZM15.2655 4.77914C14.425 5.48537 13.7503 6.36283 13.2881 7.35088C12.8259 8.33892 12.5871 9.41399 12.5883 10.5018C12.5871 11.5891 12.8257 12.6637 13.2876 13.6514C13.7495 14.6391 14.4237 15.5163 15.2636 16.2225C14.2489 16.7832 13.1029 17.0727 11.9394 17.0622C10.7759 17.0518 9.63539 16.7418 8.63131 16.163C7.62724 15.5842 6.79454 14.7568 6.216 13.763C5.63745 12.7692 5.3332 11.6437 5.3335 10.4983C5.33379 9.35295 5.63862 8.22759 6.21768 7.23412C6.79673 6.24064 7.62986 5.41365 8.63423 4.83536C9.6386 4.25707 10.7792 3.94761 11.9428 3.93774C13.1063 3.92788 14.2512 4.21796 15.2655 4.77914ZM16.9739 16.2225C17.8137 15.5163 18.4879 14.6391 18.9498 13.6514C19.4117 12.6637 19.6503 11.5891 19.6492 10.5018C19.6503 9.41399 19.4116 8.33892 18.9493 7.35088C18.4871 6.36283 17.8124 5.48537 16.9719 4.77914C17.9862 4.21796 19.1321 3.92788 20.2956 3.93774C21.4592 3.94761 22.5998 4.25707 23.6042 4.83536C24.6085 5.41365 25.4417 6.24064 26.0207 7.23412C26.5998 8.22759 26.9046 9.35295 26.9049 10.4983C26.9052 11.6437 26.601 12.7692 26.0224 13.763C25.4439 14.7568 24.6112 15.5842 23.6071 16.163C22.603 16.7418 21.4625 17.0518 20.299 17.0622C19.1355 17.0727 17.9895 16.7832 16.9748 16.2225H16.9739Z" fill="#A6A6A6"/>
</svg>

<svg xmlns="http://www.w3.org/2000/svg" width="32" height="21" fill="none"><path fill="#A6A6A6" d="M16.119 5.341a6.6 6.6 0 0 1 1.877 2.29c.44.894.67 1.875.669 2.869 0 .993-.229 1.974-.67 2.867a6.6 6.6 0 0 1-1.876 2.29 6.6 6.6 0 0 1-1.877-2.29 6.5 6.5 0 0 1-.67-2.868c0-.994.229-1.974.67-2.868a6.6 6.6 0 0 1 1.877-2.29m-.854-.562a7.5 7.5 0 0 0-1.977 2.572 7.4 7.4 0 0 0-.7 3.15 7.4 7.4 0 0 0 .7 3.15 7.5 7.5 0 0 0 1.976 2.572 6.75 6.75 0 0 1-6.633-.06 6.6 6.6 0 0 1-2.415-2.4 6.5 6.5 0 0 1-.883-3.265c0-1.145.306-2.27.885-3.264a6.6 6.6 0 0 1 2.416-2.399 6.75 6.75 0 0 1 6.631-.056m1.709 11.444a7.5 7.5 0 0 0 1.976-2.572c.462-.987.7-2.062.7-3.15a7.4 7.4 0 0 0-.7-3.15 7.5 7.5 0 0 0-1.978-2.572 6.75 6.75 0 0 1 6.632.056 6.6 6.6 0 0 1 2.417 2.4c.579.993.884 2.118.884 3.263s-.304 2.271-.883 3.265a6.6 6.6 0 0 1-2.415 2.4 6.75 6.75 0 0 1-6.632.06z"/></svg>
